icon/pk/magic-wand.svg

<svg viewBox="0 0 48 48" fill="none" xmlns="http://www.w3.org/2000/svg" height="1em" width="1em">
  <path d="M7.57932 35.4207C5.32303 32.1826 4 28.2458 4 24C4 12.9543 12.9543 4 24 4C35.0457 4 44 12.9543 44 24C44 35.0457 35.0457 44 24 44C19.7542 44 15.8174 42.677 12.5793 40.4207M7.57932 35.4207C8.93657 37.3685 10.6315 39.0634 12.5793 40.4207M7.57932 35.4207L16 27M12.5793 40.4207L21 32M16 27L20 23L25 28L21 32M16 27L21 32" stroke="black" stroke-width="4" stroke-linecap="round" stroke-linejoin="round"/>
  <path d="M17 14H21M19 12V16" stroke="black" stroke-width="4" stroke-linecap="round" stroke-linejoin="round"/>
  <path d="M28 17H34M31 14V20" stroke="black" stroke-width="4" stroke-linecap="round" stroke-linejoin="round"/>
  <path d="M32 29H36M34 27V31" stroke="black" stroke-width="4" stroke-linecap="round" stroke-linejoin="round"/>
</svg>

<svg width="48" height="48" fill="none" xmlns="http://www.w3.org/2000/svg"><path d="M7.58 35.42A19.908 19.908 0 0 1 4 24C4 12.954 12.954 4 24 4s20 8.954 20 20-8.954 20-20 20a19.908 19.908 0 0 1-11.42-3.58m-5-5a20.114 20.114 0 0 0 5 5m-5-5L16 27m-3.42 13.42L21 32m-5-5 4-4 5 5-4 4m-5-5 5 5M17 14h4m-2-2v4M28 17h6m-3-3v6M32 29h4m-2-2v4" stroke="#000" stroke-width="4" stroke-linecap="round" stroke-linejoin="round"/></svg>
